src/assets/icons/edit.svg

<svg xmlns="http://www.w3.org/2000/svg" viewBox="0 0 32 32"><path d="M13.5 2v2H2v24h28V17.91h2V30H0V2zM25.64.61l5.64 5.65L28.59 9l-.59.53-.83.84-11.24 11.2-1.13 1.13-7.58 2 2-7.59L11.24 15 21.53 4.72zm-14.4 17.22l-.24.27-1 3.77 3.77-1 .27-.27zm11.7-11.7L12.65 16.42l2.81 2.8L25.76 9zm2.7-2.69l-1.28 1.28 2.81 2.82 1.28-1.29z"/></svg>

<svg xmlns="http://www.w3.org/2000/svg" width="32" height="32" viewBox="0 0 32 32"><g id="edit"><path id="Combined-Shape" d="M13.5,2V4H2V28H30V17.91h2V30H0V2ZM25.64.61l5.64,5.65L28.59,9h0L28,9.53l-.83.84h0L15.93,21.57,14.8,22.7l-7.58,2,2-7.59L11.24,15,21.53,4.72ZM11.24,17.83,11,18.1l-1,3.77,3.77-1,.27-.27Zm11.7-11.7L12.65,16.42l2.81,2.8L25.76,9Zm2.7-2.69L24.36,4.72l2.81,2.82,1.28-1.29Z"/></g></svg>
